build/img/svg/paper-icon.svg

<svg width="46" height="48" viewBox="0 0 46 48" fill="none" xmlns="http://www.w3.org/2000/svg">
<path d="M30.0562 34.3782C28.8322 33.8232 27.8672 32.3042 26.7062 32.8682C25.5452 33.4322 25.2832 35.5162 23.8832 34.8732C22.4832 34.2292 24.2322 31.4492 22.3652 31.2922C20.4982 31.1352 19.0922 33.9302 18.1992 35.3752" stroke-width="2" stroke-miterlimit="10" stroke-linecap="round" stroke-linejoin="round"/>
<path d="M14 2.63525L10 6.63525V41.6353H40V2.63525H14Z" stroke-width="2" stroke-miterlimit="10" stroke-linecap="round" stroke-linejoin="round"/>
<path d="M6 10.6353V45.6353H36" stroke-width="2" stroke-miterlimit="10" stroke-linecap="round" stroke-linejoin="round"/>
<path d="M16 5.63525V8.63525H13" stroke-width="2" stroke-miterlimit="10" stroke-linecap="round" stroke-linejoin="round"/>
<path d="M32 15.6353H18" stroke-width="2" stroke-miterlimit="10" stroke-linecap="round" stroke-linejoin="round"/>
<path d="M32 19.6353H18" stroke-width="2" stroke-miterlimit="10" stroke-linecap="round" stroke-linejoin="round"/>
<path d="M27 23.6353H18" stroke-width="2" stroke-miterlimit="10" stroke-linecap="round" stroke-linejoin="round"/>
</svg>

<svg width="46" height="48" fill="none" xmlns="http://www.w3.org/2000/svg"><path d="M30.056 34.378c-1.224-.555-2.189-2.074-3.35-1.51-1.16.564-1.423 2.648-2.823 2.005-1.4-.644.35-3.424-1.518-3.58-1.867-.158-3.273 2.637-4.166 4.082"/><path d="M14 2.635l-4 4v35h30v-39H14z"/><path d="M6 10.635v35h30m-20-40v3h-3m19 7H18m14 4H18m9 4h-9"/></svg>
